packages/ffe-icons/icons/open/300/sm/water_loss.svg

<svg xmlns="http://www.w3.org/2000/svg" height="20" viewBox="0 -960 960 960" width="20"><path d="M455.231-334.001q-45.35 0-88.137 11.116-42.787 11.115-81.171 33.73l14.384 110.385q.77 4.616 4.039 7.693 3.27 3.077 8.27 3.077h335.153q5 0 8.269-3.077 3.27-3.077 4.039-7.693l15-120.231q-30.615 0-58.115-4.807-27.5-4.808-67.5-16.808-23.154-7.385-46.782-10.385-23.629-3-47.449-3Zm-176-9.229q41-20.385 84.807-31.577 43.808-11.192 90.091-11.192 28.301 0 56.317 4.307 28.015 4.308 54.631 12.308 32.538 9.385 60.615 14.385 28.077 5 52.565 5h3.512L736.308-792H223.307l55.924 448.77Zm34.055 227.229q-24.593 0-42.477-16.077-17.885-16.077-21.5-40l-77-603.768q-3.846-27.556 14.307-47.854 18.154-20.299 46.004-20.299h494.76q27.85 0 46.004 20.299 18.153 20.298 14.307 47.854l-76.615 603.768q-3.616 23.923-21.304 40t-42.28 16.077H313.286ZM455.231-168h204.846-359.77H455.231Z"/></svg>

<svg xmlns="http://www.w3.org/2000/svg" height="20" viewBox="0 -960 960 960" width="20"><path d="M455.23-334q-45.35 0-88.14 11.11-42.78 11.12-81.17 33.74l14.39 110.38q.77 4.62 4.04 7.69 3.27 3.08 8.27 3.08h335.15q5 0 8.27-3.08 3.27-3.07 4.04-7.69l15-120.23q-30.62 0-58.12-4.81-27.5-4.81-67.5-16.81Q526.31-328 502.68-331q-23.63-3-47.45-3Zm-176-9.23q41-20.38 84.81-31.58Q407.85-386 454.13-386q28.3 0 56.32 4.31 28.01 4.31 54.63 12.31Q597.62-360 625.69-355q28.08 5 52.57 5h3.51l54.54-442h-513l55.92 448.77ZM313.29-116q-24.6 0-42.48-16.08-17.89-16.08-21.5-40l-77-603.77q-3.85-27.55 14.31-47.85 18.15-20.3 46-20.3h494.76q27.85 0 46 20.3 18.16 20.3 14.31 47.85l-76.61 603.77q-3.62 23.92-21.31 40Q672.08-116 647.49-116h-334.2Zm141.94-52H660.08 300.31 455.23Z"/></svg>
